media/icons/icon-export-grey.svg

<svg width="13" height="13" viewBox="0 0 13 13" xmlns="http://www.w3.org/2000/svg" xmlns:sketch="http://www.bohemiancoding.com/sketch/ns"><title>icon-export</title><desc>Created with Sketch.</desc><path d="M2 11v-7h2v-2h3v2h2v-4h-6.3l-2.7 3v10h7v-2h-5zm7-6v2h-5v2h5v2l4-3-4-3z" sketch:type="MSShapeGroup" fill="#57626C"></path></svg>

<svg width="13px" height="13px" viewBox="0 0 13 13" version="1.1" xmlns="http://www.w3.org/2000/svg" xmlns:xlink="http://www.w3.org/1999/xlink">
    <!-- Generator: Sketch 43.2 (39069) - http://www.bohemiancoding.com/sketch -->
    <desc>Created with Sketch.</desc>
    <defs></defs>
    <g id="Page-1" stroke="none" stroke-width="1" fill="none" fill-rule="evenodd">
        <g id="icon-export" transform="translate(-33.000000, -32.000000)" fill-rule="nonzero" fill="#57626C">
            <g transform="translate(33.000000, 32.000000)" id="Group">
                <g>
                    <path d="M2,11 L2,4 L4,4 L4,2 L7,2 L7,4 L9,4 L9,0 L2.7,0 L0,3 L0,13 L7,13 L7,11 L2,11 Z M9,5 L9,7 L4,7 L4,9 L9,9 L9,11 L13,8 L9,5 Z" id="Shape"></path>
                </g>
            </g>
        </g>
    </g>
</svg>
